!!! OTL: Berkowitz365
!!! Chapter: 1
!!! Section: III
!!! Page: 90
!!! Mode: 
!!! Encoder: DJB
**kern
*staff1
*I"Piano
=1-
*clefC3
*k[b-e-a-]
*E-:
*M2/4
[4e-\
16e-\LL]
16d\
16c\
16B-\JJ
=2
16An/LL
16B-/
16c/
16d/JJ
16e-\LL
16f\
16g\
16a-\JJ
=3
16b-\LL
16an\
16b-\
16cc\JJ
16a-\LL
16g\
16a-\
16b-\JJ
=4
16g\LL
16f#\
16g\
16a-\JJ
4fn\
=5
8r
[8a-\
16a-\LL]
16g\
16f\
16e-\JJ
=6
!!linebreak:original
16d\LL
16c#\
16d\
16e-\JJ
16f\LL
16en\
16f\
16g\JJ
=7
16a-\LL
16g\
16a-\
16b-\JJ
16cc\LL
16b-\
16an\
16cc\JJ
=8
8a-\L
8g\J
16r
16e-\LL
16d\
16e-\JJ
=9
[4cc\
16cc\LL]
16e-\
16d\
16e-\JJ
=10
[4b-\
16b-\LL]
16e-\
16d\
16e-\JJ
=11
!!linebreak:original
16a-\LL
16g\
16f\
16g\JJ
16a-\LL
16g\
16a-\
16b-\JJ
=12
16a-\LL
16g\
16f\
16e-\JJ
16f\LL
16e-\
16d\
16c\JJ
=13
16B-\LL
16c\
16d\
16e-\JJ
16c\LL
16d\
16e-\
16f\JJ
=14
16d\LL
16e-\
16f\
16g\JJ
16e-\LL
16f\
16g\
16a-\JJ
=15
16f\LL
16g\
16a-\
16b-\JJ
16cc\LL
16b-\
16cc\
16dd\JJ
=16
!!linebreak:original
8ee-\L
8b-\J
8e-\
8r
==
*-
